X: 1637
T: The Pleasures of Hope
M:C|
L:1/8
B:O'Neill's 1637
N:"collected by McFadden"
Z:Transcribed by Nick Terhorst, nickte@microsoft.com
N: Fixed line wrapping [jc]
N: Fixed staff breaks [jc]
K:D
(3ABc|d>AF>A B>GE>G|(3FED F>A d>cB>A|E>ee>f (3gfe f>d|e>cA>B A>GF>E|
| F>Ad>d d>AF>D|E>ee>f (3gfe c>A|d>fa>f b>ge>c|d2 {e}d>cd2:|
|:(3ABc|d>fa>f b>ge>c|d>fa>f g>ec>A|d>fa>f (3gfe f>d|(3BBB B>A B>dA>G|
|F>Ad>d d>AF>D|E>e e>f (3gfe c>A|d>fa>f b>ge>c|d2 {e}d>cd2:|


